src/icons/schedule.svg

<svg xmlns="http://www.w3.org/2000/svg"  viewBox="0 0 50 50" width="32px" height="32px"><path d="M 14 0 C 12.089844 0 10.242188 0.320313 8.5 1.085938 C 8.164063 1.21875 7.925781 1.527344 7.882813 1.890625 C 7.835938 2.253906 7.992188 2.609375 8.289063 2.820313 C 8.582031 3.035156 8.972656 3.070313 9.300781 2.914063 C 10.757813 2.277344 12.3125 2 14 2 C 20.664063 2 26 7.335938 26 14 C 26 20.664063 20.664063 26 14 26 C 7.335938 26 2 20.664063 2 14 C 2 10.960938 3.164063 8.242188 5 6.085938 L 5 8.699219 C 4.996094 9.058594 5.183594 9.394531 5.496094 9.578125 C 5.808594 9.757813 6.191406 9.757813 6.503906 9.578125 C 6.816406 9.394531 7.003906 9.058594 7 8.699219 L 7 3 L 1.300781 3 C 0.941406 2.996094 0.605469 3.183594 0.421875 3.496094 C 0.242188 3.808594 0.242188 4.191406 0.421875 4.503906 C 0.605469 4.816406 0.941406 5.003906 1.300781 5 L 3.292969 5 C 1.285156 7.449219 0 10.554688 0 14 C 0 17.816406 1.527344 21.269531 4 23.796875 L 4 46 C 4 47.105469 4.894531 48 6 48 L 46 48 C 47.105469 48 48 47.105469 48 46 L 48 15 L 27.953125 15 C 27.980469 14.667969 28 14.335938 28 14 C 28 13.664063 27.972656 13.332031 27.949219 13 L 48 13 L 48 6 C 48 4.839844 47.160156 4 46 4 L 41 4 L 41 2 C 41 0.90625 40.09375 0 39 0 L 37 0 C 35.90625 0 35 0.90625 35 2 L 35 4 L 23.796875 4 C 21.269531 1.527344 17.816406 0 14 0 Z M 37 2 L 39 2 L 39 8 L 37 8 Z M 13.984375 4.984375 C 13.433594 4.996094 12.992188 5.449219 13 6 L 13 13.839844 C 12.96875 14.054688 13.003906 14.273438 13.109375 14.464844 C 13.199219 14.644531 13.34375 14.792969 13.519531 14.890625 L 17.402344 17.800781 C 17.84375 18.132813 18.46875 18.042969 18.800781 17.597656 C 19.132813 17.15625 19.042969 16.53125 18.597656 16.199219 L 15 13.5 L 15 6 C 15.003906 5.730469 14.898438 5.46875 14.707031 5.277344 C 14.515625 5.085938 14.253906 4.980469 13.984375 4.984375 Z M 27 21 L 32 21 L 32 26 L 27 26 Z M 34 21 L 39 21 L 39 26 L 34 26 Z M 25 22.644531 L 25 22.714844 L 24.859375 22.832031 C 24.910156 22.773438 24.953125 22.707031 25 22.644531 Z M 13 28 L 18 28 L 18 33 L 13 33 Z M 20 28 L 25 28 L 25 33 L 20 33 Z M 27 28 L 32 28 L 32 33 L 27 33 Z M 34 28 L 39 28 L 39 33 L 34 33 Z M 13 35 L 18 35 L 18 40 L 13 40 Z M 20 35 L 25 35 L 25 40 L 20 40 Z M 27 35 L 32 35 L 32 40 L 27 40 Z M 34 35 L 39 35 L 39 40 L 34 40 Z"/></svg>

<svg role="img" viewBox="0 0 50 50" xmlns="http://www.w3.org/2000/svg"><path d="M14 0c-1.91 0-3.758.32-5.5 1.086a.99.99 0 0 0-.617.805.983.983 0 0 0 .406.93.993.993 0 0 0 1.012.093C10.758 2.277 12.313 2 14 2c6.664 0 12 5.336 12 12s-5.336 12-12 12S2 20.664 2 14c0-3.04 1.164-5.758 3-7.914v2.613c-.004.36.184.696.496.88.313.179.695.179 1.008 0 .312-.184.5-.52.496-.88V3H1.3a1.006 1.006 0 0 0-.878.496 1.01 1.01 0 0 0 0 1.008c.183.312.52.5.879.496h1.992C1.285 7.45 0 10.555 0 14a13.96 13.96 0 0 0 4 9.797V46a2 2 0 0 0 2 2h40a2 2 0 0 0 2-2V15H27.953c.027-.332.047-.664.047-1 0-.336-.027-.668-.05-1H48V6c0-1.16-.84-2-2-2h-5V2c0-1.094-.906-2-2-2h-2c-1.094 0-2 .906-2 2v2H23.797A13.96 13.96 0 0 0 14 0m23 2h2v6h-2ZM13.984 4.984c-.55.012-.992.465-.984 1.016v7.84a.993.993 0 0 0 .11.625c.09.18.234.328.41.426l3.882 2.91a.995.995 0 0 0 1.399-.203.995.995 0 0 0-.203-1.399L15 13.5V6a1.003 1.003 0 0 0-1.016-1.016M27 21h5v5h-5Zm7 0h5v5h-5Zm-9 1.645v.07l-.14.117c.05-.059.093-.125.14-.187M13 28h5v5h-5Zm7 0h5v5h-5Zm7 0h5v5h-5Zm7 0h5v5h-5Zm-21 7h5v5h-5Zm7 0h5v5h-5Zm7 0h5v5h-5Zm7 0h5v5h-5Z"/></svg>
